!!!!SEGMENT: pl-wtm--r-730-34-m_moniuszko-stanislaw-morel.krn
!!!id: 18xx:1714
!!!COM: Moniuszko, Stanisław
!!!OTL: Morel
!!!PDT:
!!!SMS-siglum: PL-Wtm
!!!SMS-shelfmark: R 730/34/M
!!!NIFC-rismID: 1001099846
!!!URL-scan: http://repozytorium.nifc.pl/skany/pl-wtm-nut--r730m-1-43
!!!ONB-nifc: Skan 0039, No. 784
!!!SMS-variant:
!!!SMS-altvar:
**kern	**kern	**dynam	**kern	**text	**dynam
*part2	*part2	*part2	*part1	*part1	*part1
*staff3	*staff2	*	*staff1	*staff1	*
*I"Piano	*I"Piano	*	*I"Canto	*	*
*	*I'P-no	*	*I'C.	*	*
*clefF4	*clefG2	*	*clefG2	*	*
*k[f#c#]	*k[f#c#]	*	*k[f#c#]	*	*
*M12/8	*M12/8	*	*M12/8	*	*
*	*	*below	*	*	*
=1	=1	=1	=1	=1	=1
*	*^	*	*	*	*
!	!	!	!	!LO:TX:a:t=Andantino.	!	!
4.D\	4.f#/	4.d\ 4.A\	.	1.r	.	.
4.GG/	4a/	4.e\ 4.B\	.	.	.	.
.	8g/	.	.	.	.	.
[4.AA/	4.f#/	4.d\ 4.A\	.	.	.	.
(8AA/L]	4.e/	4.c#\ 4.A\	.	.	.	.
8qC#/	.	.	.	.	.	.
8BB/	.	.	.	.	.	.
8AA/J)	.	.	.	.	.	.
*	*v	*v	*	*	*	*
=2||	=2||	=2||	=2||	=2||	=2||
*	*tremolo	*	*	*	*
1.D\	8f#/ 8d/L	.	4.a/	Mo-	.
.	8f#/ 8d/	.	.	.	.
.	8f#/ 8d/	.	.	.	.
.	8f#/ 8d/	.	4f#/	-rel	.
.	8f#/ 8d/	.	.	.	.
.	8f#/ 8d/J	.	8g/	po-	.
.	8a/ 8f#/L	.	4.a/	-da-	.
.	8a/ 8f#/	.	.	.	.
.	8a/ 8f#/J	.	.	.	.
.	8g/ 8e/L	.	4b/	-jesz	.
.	8g/ 8e/	.	.	.	.
.	8g/ 8e/J	.	8cc#/	mi	.
=3	=3	=3	=3	=3	=3
*^	*	*	*	*	*
*	*	*	*	*2\right	*	*
(<4.A/	1.D\	8f#/ 8d/L	.	2.dd\	z drze-	.
.	.	8f#/ 8d/	.	.	.	.
.	.	8f#/ 8d/	.	.	.	.
4F#/	.	8f#/ 8d/	.	.	.	.
.	.	8f#/ 8d/	.	.	.	.
8G/	.	8f#/ 8d/J	.	.	.	.
4.A/	.	8f#/ 8d/L	.	4a/	-wa	.
.	.	8f#/ 8d/	.	.	.	.
.	.	8f#/ 8d/J	.	8r	.	.
4.d/)	.	8a/ 8f#/L	.	4r	.	.
.	.	8a/ 8f#/	.	.	.	.
.	.	8a/ 8f#/J	.	8r	.	.
=4	=4	=4	=4	=4	=4	=4
(<[>4.e/	1.A\	8a/ 8g/L	.	4.dd\	drzew-	.
.	.	8a/ 8g/	.	.	.	.
.	.	8a/ 8g/J	.	.	.	.
4e/]	.	8a/L 8g/	.	4cc#\	-ko	.
.	.	8a/ 8g/	.	.	.	.
8d/)	.	8b/J 8g/	.	8b\	u-	.
(<[>4.c#/	.	8a/ 8e/L	.	4.b\	-dat-	.
.	.	8a/ 8e/	.	.	.	.
.	.	8a/ 8e/	.	.	.	.
4c#/]	.	8a/ 8e/	.	4a/	-ne	.
.	.	8a/ 8e/	.	.	.	.
8B/	.	8a/ 8e/J	.	8g/	i	.
=5	=5	=5	=5	=5	=5	=5
*	*	*^	*	*	*	*
*tremolo	*	*	*tremolo	*	*	*	*
*	*2\right	*	*2\right	*	*	*	*
8A/L)	2.D\	(<4.a/	8f#\L	.	2.g/	gię-	.
8A/	.	.	8f#\	.	.	.	.
8A/	.	.	8f#\	.	.	.	.
8A/	.	4dd/	8f#\	.	.	.	.
8A/	.	.	8f#\	.	.	.	.
8A/)J	.	8ee/	8f#\J	.	.	.	.
8A/L	4.D\	4.ff#/	8f#\L	.	4f#/	-tkie	.
8A/	.	.	8f#\	.	.	.	.
8A/J	.	.	8f#\	.	8r	.	.
8A#X/L	4.C#\	4.ee/)	8f#\	.	4r	.	.
8A#X/	.	.	8f#\	.	.	.	.
8A#X/J	.	.	8f#\J	.	8r	.	.
*Xtremolo	*Xtremolo	*Xtremolo	*Xtremolo	*	*	*	*
*	*	*v	*v	*	*	*	*
=6	=6	=6	=6	=6	=6	=6
1.B/	1.BB\	8dd/L 8f#/	.	4.f#/	zie-	.
.	.	8f#/ 8d/	.	.	.	.
.	.	8f#/J 8d/	.	.	.	.
*	*	*tremolo	*	*	*	*
.	.	8f#/ 8d/L	.	4f#/	-lo-	.
.	.	8f#/ 8d/	.	.	.	.
.	.	8f#/ 8d/J	.	8f#/	-na	.
.	.	8b/ 8f#/ 8d/L	.	4.b\	sza-	.
.	.	8b/ 8f#/ 8d/	.	.	.	.
.	.	8b/ 8f#/ 8d/	.	.	.	.
.	.	8b/ 8f#/ 8d/	.	4cc#\	-ta	.
.	.	8b/ 8f#/ 8d/	.	.	.	.
.	.	8b/ 8f#/ 8d/J	.	8dd\	o-	.
!!LO:LB:g=original
=7	=7	=7	=7	=7	=7	=7
*	*	*^	*	*	*	*
4.F#/	2.FF#\	8a/L	8c#\L	.	2.cc#\	-dzie-	.
.	.	8a/	8c#\	.	.	.	.
.	.	8a/	8c#\J	.	.	.	.
4A/	.	8a/	8f#\L	.	.	.	.
.	.	8a/	8f#\	.	.	.	.
8B/	.	8a/J	8f#\J	.	.	.	.
4.c#/	4.F#\	8a/ 8f#/L	2.ryy	.	4f#/	-wa;	.
.	.	8a/ 8f#/	.	.	.	.	.
.	.	8a/ 8f#/J	.	.	8r	.	.
(<4e/	4.E\	8b/ 8g#X/L	.	.	4r	.	.
.	.	8b/ 8g#X/	.	.	.	.	.
8d/)	.	8b/ 8g#X/J	.	.	8r	.	.
*	*	*Xtremolo	*	*	*	*	*
*	*	*v	*v	*	*	*	*
=8	=8	=8	=8	=8	=8	=8
2.c#/	[1.A\	8a/L	.	4.a/	ma-	.
.	.	8a/ 8e/	.	.	.	.
.	.	8a/J 8e/	.	.	.	.
*	*	*tremolo	*	*	*	*
.	.	8a/ 8e/L	<	4a/	-jąż-	.
.	.	8a/ 8e/	.	.	.	.
.	.	8a/ 8e/J	.	8a/	-li	.
(<4.d/	.	8b/ 8g#X/ 8e/L	.	4.b\	raj-	.
.	.	8b/ 8g#X/ 8e/	.	.	.	.
.	.	8b/ 8g#X/ 8e/J	.	.	.	.
*	*	*Xtremolo	*	*	*	*
4c#/	.	8cc#/L 8g#X/ 8e/	[	4cc#\	-skie	.
.	.	8cc#/ 8g#/ 8e/	.	.	.	.
8B/)	.	8dd/J 8g#/ 8e/	f	8dd\	o-	.
=9	=9	=9	=9	=9	=9	=9
*	*	*^	*	*	*	*
*tremolo	*	*	*tremolo	*	*	*	*
8e/ 8c#/L	1.A\_	4.ee/	8a\L	.	(2.ee\	-gro-	.
8e/ 8c#/	.	.	8a\	.	.	.	.
8e/ 8c#/	.	.	8a\	.	.	.	.
8e/ 8c#/	.	(<4gg#X/	8a\	>	.	.	.
8e/ 8c#/	.	.	8a\	.	.	.	.
8e/ 8c#/J	.	8ff#/)	8a\J	.	.	.	.
8d/ 8B/L	.	4.ee/	8g#X\L	.	4.ee\	.	.
8d/ 8B/	.	.	8g#X\	.	.	.	.
8d/ 8B/	.	.	8g#X\	.	.	.	.
8d/ 8B/	.	4dd/	8g#X\	.	4dd\)	.	.
8d/ 8B/	.	.	8g#X\	.	.	.	.
8d/ 8B/J	.	8b/	8g#X\J	]	8b\	-dy	.
*Xtremolo	*	*	*Xtremolo	*	*	*	*
*	*	*v	*v	*	*	*	*
=10	=10	=10	=10	=10	=10	=10
2.c#/	1.A\]	8a/L	p <	4.a/	drzew-	.
.	.	8a/ 8e/	.	.	.	.
.	.	8a/J 8e/	.	.	.	.
*	*	*tremolo	*	*	*	*
.	.	8a/ 8e/L	.	4a/	-ko	.
.	.	8a/ 8e/	.	.	.	.
.	.	8a/ 8e/J	.	8a/	tak	.
4.d/	.	8b/ 8gn/ 8e/L	.	4.b\	pię-	.
.	.	8b/ 8gn/ 8e/	.	.	.	.
.	.	8b/ 8gn/ 8e/J	.	.	.	.
*	*	*Xtremolo	*	*	*	*
4c#/	.	8cc#/L 8g/ 8e/	.	4cc#\	-knej	.
.	.	8cc#/ 8g/ 8e/	.	.	.	.
8B/	.	8dd/J 8g/ 8e/	[[	8dd\	u-	.
*v	*v	*	*	*	*	*
=11	=11	=11	=11	=11	=11
*	*tremolo	*	*	*	*
!	!	!	!	!	!LO:DY:a
1.A\ 1.AA\	8ee/ 8cc#/ 8g/L	f >	(2.ee\	-ro-	>
.	8ee/ 8cc#/ 8g/	.	.	.	.
.	8ee/ 8cc#/ 8g/	.	.	.	.
.	8ee/ 8cc#/ 8g/	.	.	.	.
.	8ee/ 8cc#/ 8g/	.	.	.	.
.	8ee/ 8cc#/ 8g/J	.	.	.	.
.	8ee/ 8cc#/ 8g/L	.	4.ee\)	.	.
.	8ee/ 8cc#/ 8g/	.	.	.	.
.	8ee/ 8cc#/ 8g/J	.	.	.	.
.	8ee#X/ 8cc#/ 8g/L	]]	4.ee#X\	-dy?	]
.	8ee#X/ 8cc#/ 8g/	.	.	.	.
.	8ee#X/ 8cc#/ 8g/J	.	.	.	.
=12	=12	=12	=12	=12	=12
!	!	!	!	!	!LO:DY:rj:a
1.A-X\ 1.AA-X\	4.ffn/ 4.dd-X/ 4.a-X/ 4.fn/	pp	4.ffn\	Ach!	pp
*	*Xtremolo	*	*	*	*
.	8a-/L 8f/	.	4ee-X\	to	.
.	8a-/ 8f/	.	.	.	.
.	8dd-/J 8a-/ 8f/	.	8dd-X\	jej	.
*	*tremolo	*	*	*	*
.	8dd-/L 8g-X/ 8e-X/	.	4.dd-X\	ki-	.
.	8dd-/ 8g-X/ 8e-X/	.	.	.	.
.	8dd-/ 8g-X/ 8e-X/J	.	.	.	.
.	8ccn/L 8g-/ 8e-/	.	4cc#\	-bić!	.
.	8ccn/ 8g-/ 8e-/	.	.	.	.
.	8ccn/ 8g-/ 8e-/J	.	8r	.	.
!!LO:LB:g=original
=13	=13	=13	=13	=13	=13
2.A\ 2.AA\	8cc#/ 8e/ 8c#/L	.	4.cc#X\	Ach!	.
.	8cc#/ 8e/ 8c#/	.	.	.	.
.	8cc#/ 8e/ 8c#/J	.	.	.	.
*	*Xtremolo	*	*	*	*
.	8e/L 8c#/	.	4b\	to	.
.	8e/ 8c#/	.	.	.	.
.	8a/J 8e/ 8c#/	.	8a\	jej	.
*	*tremolo	*	*	*	*
2.E/ 2.EE/	8a/ 8d/ 8B/L	.	4.a/	ki-	.
.	8a/ 8d/ 8B/	.	.	.	.
.	8a/ 8d/ 8B/J	.	.	.	.
.	8g#X/ 8d/ 8B/L	.	4g#X/	-bić!	.
.	8g#X/ 8d/ 8B/	.	.	.	.
.	8g#X/ 8d/ 8B/J	.	8r	.	.
=14	=14	=14	=14	=14	=14
4.F#/ 4.FF#/	8a/ 8d/ 8A/L	.	4.a/	Ach!	.
.	8a/ 8d/ 8A/	.	.	.	.
.	8a/ 8d/ 8A/J	.	.	.	.
4.G/ 4.GG/	8b/ 8g/ 8d/L	>	4cc#^>/	to	.
.	8b/ 8g/ 8d/	.	.	.	.
.	8b/ 8g/ 8d/J	.	8b/	jej	.
4.A\ 4.AA\	8a/ 8f#/ 8d/L	.	2.a/	ki-	.
.	8a/ 8f#/ 8d/	]	.	.	.
.	8a/ 8f#/ 8d/J	.	.	.	.
*	*Xtremolo	*	*	*	*
4.AA/	(8a/L 8e/ 8c#/	.	.	.	.
.	8a/ 8d/ 8B/	.	.	.	.
.	8a/J 8e/ 8c#/)	.	.	.	.
=15	=15	=15	=15	=15	=15
*	*^	*	*	*	*
4.D\	4.f#/ 4.d/ 4.A/	4.ryy	.	4d/	-bić.	.
.	.	.	.	8r	.	.
4.GG/	(<4a/	4.e\ 4.B\	.	4r	.	.
.	8g/)	.	.	8r	.	.
(4.AA/	4.f#/ 4.d/ 4.A/	2.ryy	.	2.r	.	.
8AA/L)	4.e/ 4.c#/ 4.A/	.	.	.	.	.
8qC#/	.	.	.	.	.	.
8BB/	.	.	.	.	.	.
8AA/J	.	.	.	.	.	.
*	*v	*v	*	*	*	*
=16||	=16||	=16||	=16||	=16||	=16||
*^	*	*	*	*	*
(2.A/ (2.F#/	[2.DD\	[1.d/	.	1.r	.	.
2.G#X/ 2.E#X/))	4.DD\]	.	.	.	.	.
.	(4D\	.	.	.	.	.
.	8DD\)	.	.	.	.	.
*v	*v	*	*	*	*	*
=17	=17	=17	=17	=17	=17
1.A\ 1.F#\ 1.D\;<	1.d/;]	.	1.r	.	.
==	==	==	==	==	==
*-	*-	*-	*-	*-	*-
!!!system-decoration: [s1,{(s2,s3)}]
!!!RDF**kern: > = above
!!!RDF**kern: < = below
!!!ENC:Berenika Jozajtis
!!!END:2021-04-01
!!!EED: Leszek Kubiak
!!!EST: 2021-04-21
